X: 1
T: Walpole Cottage
C: Pat Shaw
R: reel
Z: 1997 by John Chambers <jc:trillian.mit.edu>
M: C|
L: 1/4
P: N*(I1 A B C) + I2
K: D
P: A
|: A/G/ \
| "D"FAFA | FAd>c | "G"B>dcB | "D"A3A | "G"B>dcB | "D"Adfa | "Em"ag2f | "A7"e3A/G/ |
| "D"FAFA | FAd>c | "G"B>dcB | "D"A3A | "G"B>dcB | "D"Adfa | "D"fd"A7"ec | "D"d3F ||
P: B
|| "Bm"B>cdcB | "F#7"cf2e | "Bm"dB"F#7"c^A | "Bm"B3B | "A"c>ded | cA"D"Bd | "A"cA"E7"B^G | "A"A3A |
| "G"B>cdc/B/ | "D"AF2A | "G"B>cde | "F#7"f3f | "Bm"d>efe/d/ | "A"ea"D"fd | "A"cA"E7"B^G | "A"A2a>g ||
P: C
|| "D"f>efd | "A7"ecAB/c/ | "Bm"d>cdB | "F#m"A3A | "G"B>ABG | "D"FAde | fagf | "A7"e3A |
| "D"f>efd | "A7"ecAB/c/ | "Bm"d>cdB | "F#m"A3A | "G"BcdB "D"Adfa | "D"fd"A7"ec | "D"d3f ||
P: I
|| "Em"e>fgf | edcB |1 "A"Az"E7"ez | "A"azz :|2 "A7 (Coda)"Azcz | "D"d"fine"z2 |]

